X:69
T:Curly Locks. LIT.069, The
M:6/8
Q:3/8=110
L:1/8
B:Wm. Litten MS, 1802
Z:Village Music Project 2017 Anne Wride
K:D
A | def def | ged cBA | def B2e/d/ | cBc d2 !fine! :|
A | e2e f2f | ged cBA | e2e f2f | gfg a2 !D.C.! |]

